X:1
T:Jesus Sweetly Saves
T:Sage Wilder, 1903
T:Jesus Sweetly Saves
T:Public Domain
T:Public Domain
T:Public Domain
C:Sage Wilder, 1903
Z:Public Domain
%%score ( 1 2 ) ( 3 4 )
L:1/8
M:4/4
K:Ab
V:1 treble 
V:2 treble 
V:3 bass 
V:4 bass 
V:1
 [CE][CE] | [EA]2 [EA]2 [EA][CE][EA][EB] | [Ec]2 [EB]2 [EA]2 [CE][CE] | %3
w: 1.~Tell the|sweet old sto- ry, shout the|glad old song, Let the|
w: 2.~Wan- der-|ers in dark- ness, go- ing|far a- stray, Wait for|
w: 3.~Sing His|love and mer- cy, sound it|ev- er- more, Till the|
 [DB]2 [DB]2 [DB][DE][DB][Ec] | (CE) F2 [EA]2 [CE][CE] | [EA]2 [EA]2 [EA][CE][EA][EB] | %6
w: ran- somed swell it, as it|rolls * a- long, Set the|ring- ing, ju- bi- lant and|
w: you to beck- on to the|up- * ward way. Hast- en|mess- age, tell it while you|
w: world shall list- en, won- der|and * a- dore, Till the|e- choes reach the heav’n- ly|
 [Ec]2 [Ed]2 [Ae]2 ff | (z2 AA) A2 [EB]2 | [EA]6 ||"^Refrain" e2 | (z2 G2 A2) AB | z2 EE E2 e2 | %12
w: strong: “Je- sus saves, sweet-|* * ly saves.”|saves,|Je-|* * sus saves,|* * * saves,|
w: may: “Je- sus saves, sweet-|* * ly saves.”|||||
w: shore: “Je- sus saves, sweet-|* * ly saves.”|||||
 z2 G2 A2 Ac | z2 GF E2 [EA][EB] | [Ec]>[Ec] [Ec][EA] [Ac]2 [Ac][Ad] | %15
w: * * ly saves;|* * * all na-|* join and sing, To the glo-|
w: |||
w: |||
 [Ae]>[Ae] [Ae][Ac] [Ae]2 ff | (z2 AA) A2 [EB]2 | [EA]6 |] %18
w: ry of our king: “Je- sus saves,|* * sweet- ly||
w: |||
w: |||
V:2
 x2 | x8 | x8 | x8 | A2 F2 x4 | x8 | x8 | (e4 A2) x2 | x6 || x2 | e6 x2 | c6 x2 | e6 x2 | B6 x2 | %14
w: ||||cho- rus|||He *|||He|sweet-|Let|ture|
w: ||||with the||||||||||
w: ||||tune- ful||||||||||
 x8 | x8 | (e4 A2) x2 | x6 |] %18
w: ||saves.” *||
w: ||||
w: ||||
V:3
 A,A, | [A,C]2 [A,C]2 [A,C]A,[C,A,][E,G,] | A,2 [E,D]2 [A,,C]2 A,A, | %3
w: ~ ~|~ ~ ~ ~ ~ ~|~ ~ ~ ~ ~|
 [E,G,]2 [E,G,]2 [E,G,][E,G,][E,G,][E,G,] | (A,C) [D,D]2 [A,,C]2 A,A, | %5
w: ~ ~ ~ ~ ~ ~|~ * ~ ~ ~ ~|
 [A,C]2 [A,C]2 [A,C]A,[C,A,][E,G,] | A,2 [A,B,]2 [A,C]2 DD | z2 A,A, [E,C]2 [E,D]2 | [A,,A,C]6 || %9
w: ~ ~ ~ ~ ~ ~|~ He saves, Je- sus|He saves, sweet- ly|~|
 z2 | z2 [B,D]2 [A,C]2 z2 | z2 A,A, A,2 z2 | z2 [B,D]2 [A,C]2 z2 | %13
w: |~ ~|~ ~ ~|~ ~|
 z2 [E,B,][E,A,] (E,D,)[C,A,][B,,G,] | [A,,A,]>[A,,A,] [A,,A,][A,,C] [A,,C]2 A,[A,B,] | %15
w: ~ ~ ~ * ~ ~|“Je- sus sweet- ly saves.” * *|
 [A,C]>[A,C] [A,C][A,E] [A,C]2 DD | z2 A,A, [E,C]2 [E,D]2 | [A,,C]6 |] %18
w: |||
V:4
 A,A, | x5 A, x2 | A,2 x2 A,A, x2 | x8 | A,2 x3 A,A, x | x5 A, x2 | A,2 x6 | C4 x4 | x6 || x2 | %10
w: ~ ~|~|~ ~ ~||~ ~ ~|~|saves,|saves;|||
 x8 | x2 A,A, A,2 x2 | x8 | x4 G,2 x2 | x6 A, x | x8 | C4 x4 | x6 |] %18
w: |~ ~ ~||~|||||

